X:137
T:Northbrook Breakdo
R:reel
C:Bruce Osborne - May 2002
Z:abc by bosborne@kos.net
M:2/4
L:1/8
K:Cmaj
g/f/|e/c/B/c/ G/c/B/c/|e/c/B/c/ dB/A/|G/B/d/B/ G/B/d/B/|c/B/c/d/ eg/f/|\
e/c/B/c/ G/c/B/c/|e/c/B/c/ dB/A/|G/B/d/B/ G/B/d/B/|c/B/e/d/ c:|
|:e/f/|g/c/a/c/ g/c/B/c/|g/c/a/c/ gB/c/|d/B/G/B/ d/B/G/B/|c/B/c/d/ ee/f/|\
g/c/a/c/ g/c/B/c/|g/c/a/c/ gB/c/|d/B/G/B/ d/B/G/B/|c/B/e/d/ c:|
